X:178
T:London Hornpipe
R: hp 32
M:4/4
L:1/8
Q:2/4=80
S:Lawrence Leadley MS (1827-1897)
K:G
|:Bc|dcBA G2Bd|g2eg f2dB|c2ac B2gB|cBAG GFED|
EDEF GFGA|BABc d2g2|dBGB cAGF|G2GG G2:|]
|:d2|g2bg f2af|g2eg f2d2|c2ac B2gB|cBAG GFED|
EDEF GFGA|BABc d2g2|dBGB cAGF|G2GG G2:|]

